X: 16504
T: Hairy Dogleaf, The
R: reel
M: 4/4
K: Dmajor
|:D3 B ADFA|B2 dB BAFE|D3 B ADFA|dBAF EGFE|
D3 B ADFA|B2 dB BAFA|B2 dB BAFA|1 dBAF EGFE:|
|:d3 f edfd|B2 dB BAFA|d2 fd efge|affa fgfe|
dAdf edfd|B2 dB BAFA|B2 dB BAFA|1 dBAF EFGA:|

